X: 9
T: La Maison de Glace
T: (The Ice House)
C: Réjean Brunet 
L: 1/8
M: 6/8
K: D
|: "D"D3 DEF | A3 AFA | "G"B3 Bcd | "A"cBA GFE | 
   "D"D3 DEF | A3 AFA |1 "G"B3 BAG | "A"F2 A E2 A :|2 "G"B3 Bcd | "A"c3 A3 |
|: "Bm"B3 Bcd | "G"B3 Bcd | "A"fed edc | dcA dcA
   "Bm"B3 Bcd | "G"B3 Bcd | "A"fed edc | "D"Adc d3 :|

